Catalina-dark/actions/16/mail-meeting-request-reply.svg

<?xml version="1.0" encoding="UTF-8" standalone="no"?>
<svg
   xmlns:dc="http://purl.org/dc/elements/1.1/"
   xmlns:cc="http://creativecommons.org/ns#"
   xmlns:rdf="http://www.w3.org/1999/02/22-rdf-syntax-ns#"
   xmlns:svg="http://www.w3.org/2000/svg"
   xmlns="http://www.w3.org/2000/svg"
   xmlns:sodipodi="http://sodipodi.sourceforge.net/DTD/sodipodi-0.dtd"
   xmlns:inkscape="http://www.inkscape.org/namespaces/inkscape"
   width="16"
   height="16"
   viewBox="0 0 16 16"
   version="1.1"
   id="svg7"
   sodipodi:docname="mail-meeting-request-reply.svg"
   inkscape:version="0.92.4 5da689c313, 2019-01-14">
  <metadata
     id="metadata11">
    <rdf:RDF>
      <cc:Work
         rdf:about="">
        <dc:format>image/svg+xml</dc:format>
        <dc:type
           rdf:resource="http://purl.org/dc/dcmitype/StillImage" />
      </cc:Work>
    </rdf:RDF>
  </metadata>
  <sodipodi:namedview
     pagecolor="#ffffff"
     bordercolor="#666666"
     borderopacity="1"
     objecttolerance="10"
     gridtolerance="10"
     guidetolerance="10"
     inkscape:pageopacity="0"
     inkscape:pageshadow="2"
     inkscape:window-width="640"
     inkscape:window-height="480"
     id="namedview9"
     showgrid="false"
     inkscape:zoom="14.75"
     inkscape:cx="6.8135593"
     inkscape:cy="8"
     inkscape:window-x="0"
     inkscape:window-y="26"
     inkscape:window-maximized="0"
     inkscape:current-layer="svg7" />
  <defs
     id="defs3">
    <style
       id="current-color-scheme"
       type="text/css">
   .ColorScheme-Text { color:#5c616c; } .ColorScheme-Highlight { color:#5294e2; }
  </style>
  </defs>
  <path
     style="fill:#f1f6f8;fill-opacity:0.8509804"
     class="ColorScheme-Text"
     d="M 14.003906 1.9980469 L 2 2 C 0.892 2 0 2.892 0 4 L 0 12 C 0 13.108 0.892 14 2 14 L 13 14 L 13 7 C 13.00057 6.78274 13.071905 6.5715675 13.203125 6.3984375 L 8.0039062 8.9980469 L 2.0039062 5.9980469 L 2.0039062 3.9980469 L 8.0039062 6.9980469 L 14.003906 3.9980469 L 14.003906 5.9980469 L 16.003906 5.9980469 L 16.003906 3.9980469 C 16.003906 2.8900469 15.111906 1.9980469 14.003906 1.9980469 z M 14 7 L 14 11 L 16 11 L 16 7 L 14 7 z M 14 12 L 14 14 L 16 14 L 16 12 L 14 12 z"
     id="path5" />
</svg>

<svg width="16" height="16" version="1.1" viewBox="0 0 16 16" xmlns="http://www.w3.org/2000/svg">
<defs>
<style id="current-color-scheme" type="text/css">.ColorScheme-Text { color:#5c616c; } .ColorScheme-Highlight { color:#5294e2; }</style>
</defs>
<path class="ColorScheme-Text" d="m14.004 1.998-12.004 0.0019531c-1.108 0-2 0.892-2 2v8c0 1.108 0.892 2 2 2h11v-7c5.7e-4 -0.21726 0.071905-0.42843 0.20312-0.60156l-5.1992 2.5996-6-3v-2l6 3 6-3v2h2v-2c0-1.108-0.892-2-2-2zm-0.003906 5.002v4h2v-4h-2zm0 5v2h2v-2h-2z" fill="#f1f6f8" fill-opacity=".85098"/>
</svg>
